X: 73
T:John Kelley's Reel
M:4/4
N:Paul McGrattan's workshop 9/11/99
O:Irish
R:Reel
Z:Thomas Keays
K:D
P:A
BEED Bcdc | B2AF DEFA | BEED Bcdc | B2AF E2FA :|
P:B
Beec dff2 | edBc dBBA | Beec dff2 | edBc d2ed |
Beec dff2 | edBc d2 ef | g3e f3e | dBBA dfed |]
<end>
<start>
